!!!COM: Bach, Johann Sebastian
!!!CDT: 1685/3//-1750/7/28/
!!!OTL@@DE: Erstanden ist der heil'ge Christ
!!!AGN: 4-Part Chorale
!!!SCT: BH 176
!!!SCT: BWV 306
**harm	**root	**kern	**kern	**kern	**kern
!	!	!bass	!tenor	!alto	!soprno
*	*Iorgan	*Iorgan	*Iorgan	*Iorgan	*Iorgan
*M3/4	*M3/4	*M3/4	*M3/4	*M3/4	*M3/4
*MM60	*MM60	*MM60	*MM60	*MM60	*MM60
*k[]	*k[]	*k[]	*k[]	*k[]	*k[]
*C:	*C:	*C:	*C:	*C:	*C:
I	4FF	4CC	4E	4G	4c
=1	=1	=1	=1	=1	=1
I	4.FF	4.C	8E	4G	4.c
.	.	.	8F	.	.
.	.	.	8E	8A	.
vii	8EE	8BB	8D	8B	8d
vi	4DD	4AA	4C	[4c	8e
.	.	.	.	.	8f
=2	=2	=2	=2	=2	=2
V	2CC	4.GG	2D	4c]	2g
.	.	.	.	8B	.
.	.	8AA	.	8c	.
Vb	4CC	8BB	4G	[4d	4d
.	.	8GG	.	.	.
=3	=3	=3	=3	=3	=3
I	2FF	4.C	2G	8d]	2e
.	.	.	.	8B	.
.	.	.	.	[2c	.
.	.	8BB	.	.	.
viib/V	4BB	4AA	4A	.	4f#
=4	=4	=4	=4	=4	=4
V;	2CC;	2GG;	2D;	4c]	2g;
.	.	.	.	4B;	.
V7b	4CC	4BB	4G	[4d	4fy
=5	=5	=5	=5	=5	=5
I	4FF	4.C	8G	4d]	4.e
.	.	.	8E	.	.
vib	4DD	.	2A	2c	.
.	.	8BB	.	.	8d
vi	4DD	4AA	.	.	8e
.	.	.	.	.	8f
=6	=6	=6	=6	=6	=6
Vb	4CC	4.BB	8G	8d	2g
.	.	.	8A	8c	.
Vb	8CC	.	4B	8d	.
vii7/ii	8FF#	8C#	.	[8e	.
ii	4GG	4D	4A	8e]	4f
.	.	.	.	[8d	.
=7	=7	=7	=7	=7	=7
vi	4DD	4.AA	4A	8d]	2e
.	.	.	.	16c	.
.	.	.	.	16B	.
vi	4DD	.	4E	[4c	.
.	.	8GG	.	.	.
v7c/III	4EE	4FF	4AA	8c]	4d
.	.	.	.	16B	.
.	.	.	.	16A	.
!!linebreak: 2
=8	=8	=8	=8	=8	=8
III;	2AA;	2EE;	2BB;	2G#;	2e;
vi	4DD	4AA	4C	4A	4e
=9	=9	=9	=9	=9	=9
iii	4AA	8E	4E	4.B	2g
.	.	8EE	.	.	.
iii	4AA	8E	[2G	.	.
.	.	8D	.	8c	.
V7b	4CC	8C	.	[4d	4f
.	.	8BB	.	.	.
=10	=10	=10	=10	=10	=10
I	4FF	8C	8G]	4d]	2e
.	.	8CC	8E	.	.
vib	4DD	8C	8A	4c	.
.	.	8BB	8G	.	.
viioD7/vi	4CC#	8AA	4F	[4B	4d
.	.	8GG#	.	.	.
=11	=11	=11	=11	=11	=11
vi	4DD	4AA	8E	4B]	2c
.	.	.	8C	.	.
IV	4BB-	4FF	8F	4A	.
.	.	.	8E	.	.
V	4CC	4GG	4D	8G	4B
.	.	.	.	8F	.
=12	=12	=12	=12	=12	=12
vi;	2DD;	2AA;	2C;	2E;	2c;
vi	4DD	8AA	4E	4A	4c
.	.	8GG	.	.	.
=13	=13	=13	=13	=13	=13
iib	4GG	4.FF	4D	4A	8d
.	.	.	.	.	8c
V7d	8CC	.	4G	8B	8d
Ib	8FF	8EE	.	8c	8e
!!!ONB1: in beat 3 of measure 13, the tenor pitch is 'd' in
!!!ONB2: Breitkof & Haertel editions, but is 'B-' in the
!!!ONB3: Bach Compendium index incipit.
ii	4GG	4DD	8F	8A	4f
.	.	.	8D	8B	.
=14	=14	=14	=14	=14	=14
I	4FF	8CC	8E	2c	2e
.	.	8DD	8F	.	.
Ib	4FF	8EE	[4G	.	.
.	.	8FF	.	.	.
V	4CC	4GG	8G]	[4B	4d
.	.	.	8F	.	.
=15	=15	=15	=15	=15	=15
vi	4DD	8AA	4E	4B]	2c
.	.	8GG	.	.	.
IV	4BB-	4FF	8F	4A	.
.	.	.	8E	.	.
V7	4CC	4GG	8D	4G	4B
.	.	.	8F	.	.
=16	=16	=16	=16	=16	=16
I;	2FF;	2CC;	2E;	2G;	2c;
==	==	==	==	==	==
*-	*-	*-	*-	*-	*-
!!chor2scor: -l 2 -s 0.6 -o %b.pmx
!!!YEC: Copyright 1994, David Huron
!!!YEC: Changes/Additions 2001 by Craig Stuart Sapp
!!!YEN: United States of America
!!!SMA: 371 Bach Chorales, edited by Ludwig Erk, C.F. Peters
!!!PDT: 1850, 1865
!!!ONB: Harmony and Root analysis done manually
